packages/components/icon/src/assets/icons/company-event.svg

<svg width="24" height="24" viewBox="0 0 24 24" fill="none" xmlns="http://www.w3.org/2000/svg">
<path fill-rule="evenodd" clip-rule="evenodd" d="M19.5114 3C19.7138 3 19.8838 3.0687 20.0212 3.2061C20.1586 3.34349 20.2273 3.51343 20.2273 3.71591V16.6023C20.2273 16.7903 20.1658 16.9892 20.0429 17.1989C19.9199 17.4086 19.7789 17.5713 19.6198 17.687L12.7211 21.7221C12.5764 21.8233 12.374 21.874 12.1136 21.874C11.8678 21.874 11.6653 21.8233 11.5062 21.7221L4.60744 17.687C4.44835 17.5713 4.30734 17.4086 4.1844 17.1989C4.06147 16.9892 4 16.7903 4 16.6023V3.71591C4 3.51343 4.07231 3.34349 4.21694 3.2061C4.36157 3.0687 4.52789 3 4.71591 3H19.5114ZM14.9773 15.8864H17.3636V11.1136L16.8864 5.38636H15.4545L14.9773 11.1136V15.8864ZM10.8988 7.64256C10.7541 7.64256 10.6818 7.76549 10.6818 8.01136V11.1136L7.3626 7.79442C7.26136 7.69318 7.16736 7.64256 7.08058 7.64256C6.93595 7.64256 6.86364 7.76549 6.86364 8.01136V15.8864H14.5V11.1136L11.1808 7.79442C11.0795 7.69318 10.9855 7.64256 10.8988 7.64256Z" fill="currentColor"/>
</svg>

<svg viewBox="0 0 24 24" fill="none" xmlns="http://www.w3.org/2000/svg"><path fill-rule="evenodd" clip-rule="evenodd" d="M19.511 3c.203 0 .373.069.51.206a.692.692 0 0 1 .206.51v12.886c0 .188-.061.387-.184.597-.123.21-.264.372-.423.488l-6.899 4.035c-.145.101-.347.152-.607.152-.246 0-.449-.05-.608-.152l-6.899-4.035a1.578 1.578 0 0 1-.423-.488A1.186 1.186 0 0 1 4 16.602V3.716c0-.203.072-.373.217-.51A.703.703 0 0 1 4.716 3H19.51Zm-4.534 12.886h2.387v-4.772l-.478-5.728h-1.431l-.478 5.728v4.772ZM10.9 7.643c-.145 0-.217.122-.217.368v3.103l-3.32-3.32c-.1-.1-.195-.151-.281-.151-.145 0-.217.122-.217.368v7.875H14.5v-4.772l-3.32-3.32c-.1-.1-.194-.151-.281-.151Z" fill="currentColor"/></svg>
